X:1
T:Title
%%score ( 1 2 ) { 3 | 4 }
L:1/8
Q:1/4=98
M:4/4
K:Ab
V:1 treble nm="Grand Piano, Soprano"
V:2 treble 
V:3 treble nm="Choir Pad, Dwight, LM"
V:4 bass 
V:1
 [Ec]2 [EB]>A [Gc]2 [EB][DG] | [CA]3 [DB] [Ec]2 z2 | [EB]2 [EB]>[EB] [Ec]2 [Ae]2 | %3
w: By~Joseph~Perry~Holbrook,~1868 * * * * *|||
 [Af]2 ec [EB]2 z2 | [Ee]2 [Ed]>[Ac] [Ge]2 dB | [EA]3 F [EA]2 z2 | [Ad]2 [Ae][Af] ec[FA][=EB] | %7
w: ||||
 [Ec]2 [Dc]>B [CA]4- | [CA]4 z4 |] %9
w: ||
V:2
 x8 | x8 | x8 | z2 E2 z4 | z4 z2 E2 | x8 | z4 A2 z2 | x8 | x8 |] %9
V:3
 E2 D>C E2 D[K:bass]B, | A,3 A, A,2 z2 | G,2 G,>G, A,2 C2 | D2 CB, G,2 z2 | %4
 C2 B,>A, B,2 B,[K:treble]D | C3 D C2 z2 | D2 CD E2[K:bass] A,2 | A,2 G,2 A,4- | A,4 z4 |] %9
V:4
 A,2 A,>A, E,2 E,2 | A,,3 A,, A,,2 z2 | E,2 E,>E, z2 A,2 | [A,,A,]2 A,,2 E,2 z2 | %4
 A,2 A,,>A,, E,2 E,2 | A,,3 A,, A,,2 z2 | F,2 E,D, C,2 F,D, | E,2 E,2 A,,4- | A,,4 z4 |] %9

